MonoIcons/scalable/status/touch-disabled-symbolic.svg

<?xml version="1.0" encoding="UTF-8"?>
<svg height="16px" viewBox="0 0 16 16" width="16px" xmlns="http://www.w3.org/2000/svg">
    <path d="m 3 0 c -1.175781 0 -2.199219 0.695312 -2.6875 1.6875 l 0.15625 -0.15625 l 14 14 l 1.0625 -1.0625 l -1.292969 -1.292969 l 1.46875 -1.46875 c 0.449219 -0.449219 0.386719 -1.632812 -0.695312 -1.71875 c -0.273438 0.003907 -0.53125 0.109375 -0.71875 0.304688 l -1.503907 1.433593 l -0.789062 -0.789062 v -4.9375 h -2 v 2.9375 l -2.9375 -2.9375 h 2.9375 v -2 c 0 -0.554688 0.445312 -1 1 -1 s 1 0.445312 1 1 v 2 h 1 c 1.644531 0 3 -1.355469 3 -3 s -1.355469 -3 -3 -3 z m -2.99609375 3.066406 c 0.03515625 1.59375 1.33593775 2.894532 2.92968775 2.929688 z m 1.99609375 4.878906 c -0.554688 0 -1 0.445313 -1 1 v 4.054688 s 0 3 3 3 h 6 c 0.726562 -0.003906 1.507812 -0.296875 2.152344 -0.785156 l -5.328125 -5.328125 c -0.070313 0.066406 -0.171875 0.113281 -0.324219 0.113281 c -0.5 0 -0.5 -0.5 -0.5 -0.5 v -0.4375 l -1.054688 -1.054688 c -0.527343 0.027344 -0.945312 0.457032 -0.945312 0.992188 v 0.5 s 0 0.5 -0.5 0.5 s -0.5 -0.5 -0.5 -0.5 v -0.554688 c 0 -0.554687 -0.445312 -1 -1 -1 z m 0 0" fill="#2e3436"/>
</svg>

<svg width="16" height="16" viewBox="0 0 16 16" fill="none" xmlns="http://www.w3.org/2000/svg">
<g clip-path="url(#clip0_231_1142)">
<path fill-rule="evenodd" clip-rule="evenodd" d="M4.01393 8.83251C4.00477 8.8869 4 8.94285 4 9V9.5C4 9.5 4 10 3.5 10C3 10 3 9.5 3 9.5V8.94531C3 8.39062 2.55469 7.94531 2 7.94531C1.44531 7.94531 1 8.39062 1 8.94531V13C1 13 1 16 4 16H10C10.33 15.9982 10.6713 15.9368 11.006 15.8245L4.01393 8.83251ZM14.783 12.631L15.707 11.707C16.1563 11.2578 16.0938 10.0742 15.0117 9.98828C14.7383 9.99219 14.4805 10.0977 14.293 10.293L13.3469 11.1949L14.783 12.631ZM12 9.848V6H13C14.6445 6 16 4.64453 16 3C16 1.35547 14.6445 0 13 0H3C2.74091 0 2.48922 0.0337617 2.24902 0.097022L8.152 6H10V7.848L12 9.848ZM10 6V4C10 3.44531 10.4453 3 11 3C11.5547 3 12 3.44531 12 4V6H10Z" fill="#2E3436"/>
<path d="M0.999985 2.33335L13.2565 14.5899" stroke="#2E3436" stroke-width="2" stroke-linecap="round"/>
</g>
<defs>
<clipPath id="clip0_231_1142">
<rect width="16" height="16" fill="white"/>
</clipPath>
</defs>
</svg>
